X: 38098
T: Spoil The Dance
R: reel
M: 4/4
K: Adorian
~A3G ~B3A|GBdB AGEG|~A3G ~B3A|1 GBdB A2GE:|2 GBdB A2ef||
ge~e2 gede|ge~e2 a2ba|ge~e2 gedB|GABG A2ef|
ge~e2 gede|ge~e2 a2ga|b/a/g af g2ed|eBdB AGEG||

